bitrix/js/ui/buttons/icons/images/ui-camera-black.svg

<svg xmlns="http://www.w3.org/2000/svg" width="26" height="26" viewBox="0 0 26 26"><path fill="#535C69" d="M4.191406,8.412109 C4.0703125,8.576172 4,8.779297 4,9 L4,18 C4,18.5527 4.449219,19 5,19 L15,19 C15.5508,19 16,18.5527 16,18 L16,9 C16,8.447266 15.5508,8 15,8 L5,8 C4.667969,8 4.375,8.162109 4.191406,8.412109 Z M17.2031,11.32812 C17.082,11.37109 17,11.48438 17,11.61133 L17,16.38867 C17,16.51562 17.082,16.62891 17.2031,16.67188 L21.6016,18.1973 C21.707,18.2344 21.8125,18.2109 21.8906,18.1504 C21.957,18.0957 22,18.0117 22,17.91406 L22,10.08594 C22,9.87891 21.7969,9.73438 21.6016,9.80273 L17.2031,11.32812 Z"/></svg>

<svg xmlns="http://www.w3.org/2000/svg" width="26" height="26" viewBox="0 1 26 26"><path fill="#535C69" d="M4.191 8.412A.985.985 0 0 0 4 9v9a1 1 0 0 0 1 1h10a1 1 0 0 0 1-1V9a1 1 0 0 0-1-1H5a1 1 0 0 0-.809.412zm13.012 2.916a.302.302 0 0 0-.203.283v4.778c0 .127.082.24.203.283l4.399 1.525c.105.037.21.014.289-.047a.303.303 0 0 0 .109-.236v-7.828a.3.3 0 0 0-.398-.283l-4.399 1.525z"/></svg>
